X:211
T:Forbes Morrison
C:James Scott Skinner
M:4/4
F:http://blackrosetheband.googlepages.com/ABCTUNES.ABC May 2009
R:Strathspey
K:A
|:d|c<A E>D C>E A,>C | D2 B>A (3Bfe (3dcB | c<A E>D C>E A,>C | (3DFB (3GEG A2-A:||
g|a>f g>e f<d e>c | d>B c>A (3Bcd (3efg | a>f g>e f<d e>c | (3Gfe (3dcB A2-A>g|
(3afa (3geg (3fdf (3ece | (3dBd (3cAc (3Bcd (3efg | (3aga (3efg (3aed (3cBA | (3GFE (3DCB, A,2-A,||
